sources/resources/icons/16/shape/octogon.svg

<svg width="16" height="16" viewBox="0 0 16 16" fill="none" xmlns="http://www.w3.org/2000/svg">
<path fill-rule="evenodd" clip-rule="evenodd" d="M5.92457 0.000312196C5.6281 -0.000121249 5.32947 -0.000557914 5.03784 0.0694554C4.78275 0.130697 4.53889 0.231708 4.31521 0.36878C4.05949 0.525483 3.84864 0.736952 3.63931 0.946894L0.946652 3.63955C0.736709 3.84888 0.525239 4.05974 0.368536 4.31545C0.231464 4.53913 0.130453 4.783 0.0692112 5.03809C-0.000802055 5.32971 -0.00036539 5.62834 6.80551e-05 5.92481V10.0759C-0.00036539 10.3724 -0.000802055 10.671 0.0692112 10.9627C0.130453 11.2178 0.231464 11.4616 0.368536 11.6853C0.52524 11.941 0.73671 12.1519 0.946653 12.3612L3.63931 15.0539C3.84863 15.2638 4.05949 15.4753 4.31521 15.632C4.53889 15.7691 4.78275 15.8701 5.03784 15.9313C5.32946 16.0013 5.62807 16.0009 5.92453 16.0004H10.0757C10.3722 16.0009 10.6708 16.0013 10.9624 15.9313C11.2175 15.8701 11.4614 15.7691 11.6851 15.632C11.9408 15.4753 12.1516 15.2638 12.361 15.0539L15.0536 12.3612C15.2636 12.1519 15.475 11.941 15.6317 11.6853C15.7688 11.4616 15.8698 11.2178 15.9311 10.9627C16.0011 10.6711 16.0006 10.3725 16.0002 10.076V5.92481C16.0006 5.62836 16.0011 5.32969 15.9311 5.03809C15.8698 4.783 15.7688 4.53913 15.6317 4.31545C15.475 4.05974 15.2636 3.84889 15.0536 3.63956L12.361 0.946903C12.1516 0.736957 11.9408 0.525485 11.6851 0.36878C11.4614 0.231708 11.2175 0.130697 10.9624 0.0694554C10.6708 -0.000557914 10.3722 -0.000121249 10.0757 0.000312196H5.92457ZM4.29719 1.70332C4.55662 1.44389 4.68633 1.31418 4.83771 1.22142C4.97192 1.13918 5.11823 1.07857 5.27129 1.04183C5.44392 1.00038 5.62736 1.00038 5.99425 1.00038H10.006C10.3729 1.00038 10.5564 1.00038 10.729 1.04183C10.882 1.07857 11.0284 1.13918 11.1626 1.22142C11.3139 1.31418 11.4436 1.44389 11.7031 1.70331L14.2972 4.29744C14.5566 4.55686 14.6863 4.68658 14.7791 4.83795C14.8613 4.97216 14.9219 5.11848 14.9587 5.27153C15.0001 5.44416 15.0001 5.62761 15.0001 5.99449V10.0063C15.0001 10.3732 15.0001 10.5566 14.9587 10.7292C14.9219 10.8823 14.8613 11.0286 14.7791 11.1628C14.6863 11.3142 14.5566 11.4439 14.2972 11.7033L11.7031 14.2974C11.4437 14.5569 11.3139 14.6866 11.1626 14.7793C11.0284 14.8616 10.882 14.9222 10.729 14.9589C10.5564 15.0004 10.3729 15.0004 10.006 15.0004H5.99425C5.62736 15.0004 5.44392 15.0004 5.27129 14.9589C5.11823 14.9222 4.97192 14.8616 4.83771 14.7793C4.68633 14.6866 4.55662 14.5569 4.29719 14.2974L1.70308 11.7033C1.44365 11.4439 1.31394 11.3142 1.22118 11.1628C1.13893 11.0286 1.07833 10.8823 1.04158 10.7292C1.00014 10.5566 1.00014 10.3732 1.00014 10.0063V5.99449C1.00014 5.62761 1.00014 5.44416 1.04158 5.27153C1.07833 5.11848 1.13893 4.97216 1.22118 4.83795C1.31394 4.68658 1.44365 4.55686 1.70308 4.29744L4.29719 1.70332Z" fill="white"/>
</svg>

<svg fill="none" viewBox="0 0 16 16" xmlns="http://www.w3.org/2000/svg"><path d="m5.92 3.12e-4c-0.296-4.33e-4 -0.595-8.7e-4 -0.887 0.0691-0.255 0.0612-0.499 0.162-0.723 0.299-0.256 0.157-0.467 0.368-0.676 0.578l-2.69 2.69c-0.21 0.209-0.421 0.42-0.578 0.676-0.137 0.224-0.238 0.468-0.299 0.723-0.07 0.292-0.0696 0.59-0.0691 0.887v4.15c-4.33e-4 0.296-8.7e-4 0.595 0.0691 0.887 0.0612 0.255 0.162 0.499 0.299 0.723 0.157 0.256 0.368 0.467 0.578 0.676l2.69 2.69c0.209 0.21 0.42 0.421 0.676 0.578 0.224 0.137 0.468 0.238 0.723 0.299 0.292 0.07 0.59 0.0696 0.887 0.0691h4.15c0.296 5e-4 0.595 9e-4 0.887-0.0691 0.255-0.0612 0.499-0.162 0.723-0.299 0.256-0.157 0.466-0.368 0.676-0.578l2.69-2.69c0.21-0.209 0.421-0.42 0.578-0.676 0.137-0.224 0.238-0.468 0.299-0.723 0.07-0.292 0.0695-0.59 0.0691-0.887v-4.15c4e-4 -0.296 9e-4 -0.595-0.0691-0.887-0.0613-0.255-0.162-0.499-0.299-0.723-0.157-0.256-0.368-0.467-0.578-0.676l-2.69-2.69c-0.209-0.21-0.42-0.421-0.676-0.578-0.224-0.137-0.468-0.238-0.723-0.299-0.292-0.07-0.59-0.0696-0.887-0.0691h-4.15zm-1.63 1.7c0.259-0.259 0.389-0.389 0.541-0.482 0.134-0.0822 0.281-0.143 0.434-0.18 0.173-0.0414 0.356-0.0414 0.723-0.0414h4.01c0.367 0 0.55 0 0.723 0.0414 0.153 0.0367 0.299 0.0974 0.434 0.18 0.151 0.0928 0.281 0.222 0.54 0.482l2.59 2.59c0.259 0.259 0.389 0.389 0.482 0.541 0.0822 0.134 0.143 0.281 0.18 0.434 0.0414 0.173 0.0414 0.356 0.0414 0.723v4.01c0 0.367 0 0.55-0.0414 0.723-0.0368 0.153-0.0974 0.299-0.18 0.434-0.0928 0.151-0.222 0.281-0.482 0.54l-2.59 2.59c-0.259 0.26-0.389 0.389-0.54 0.482-0.134 0.0823-0.281 0.143-0.434 0.18-0.173 0.0415-0.356 0.0415-0.723 0.0415h-4.01c-0.367 0-0.55 0-0.723-0.0415-0.153-0.0367-0.299-0.0973-0.434-0.18-0.151-0.0927-0.281-0.222-0.541-0.482l-2.59-2.59c-0.259-0.259-0.389-0.389-0.482-0.54-0.0822-0.134-0.143-0.28-0.18-0.434-0.0414-0.173-0.0414-0.356-0.0414-0.723v-4.01c0-0.367 0-0.55 0.0414-0.723 0.0368-0.153 0.0974-0.299 0.18-0.434 0.0928-0.151 0.222-0.281 0.482-0.541l2.59-2.59z" clip-rule="evenodd" fill="#000" fill-rule="evenodd"/></svg>
